img/main-logo.svg

<svg width="166" height="28" viewBox="0 0 166 28" fill="none" xmlns="http://www.w3.org/2000/svg">
<g clip-path="url(#clip0_3157_4522)">
<path d="M16.5473 21.9708H11.6747L4.16117 12.097V21.9708H-0.0195312V0.902832H4.16117V10.2038L11.4116 0.902832H16.216L8.41982 11.1358L16.5473 21.9708Z" fill="white"/>
<path d="M19.4713 16.039C19.9976 17.9322 21.4204 18.8739 23.73 18.8739C24.3738 18.9145 25.0179 18.7987 25.6069 18.5366C26.1959 18.2745 26.7122 17.8738 27.1116 17.3691L30.1911 19.1749C29.4608 20.2274 28.4716 21.0756 27.3182 21.6383C26.1647 22.201 24.8856 22.4593 23.6033 22.3885C22.5 22.4403 21.3976 22.2673 20.3638 21.88C19.3299 21.4927 18.3862 20.8993 17.5905 20.1361C16.8421 19.3925 16.2544 18.5041 15.8639 17.5256C15.4734 16.5471 15.2882 15.4993 15.3199 14.4468C15.2918 13.4016 15.4759 12.3615 15.8611 11.3889C16.2462 10.4163 16.8245 9.53115 17.5613 8.78656C18.3143 8.02127 19.2207 7.42258 20.2214 7.02948C21.2222 6.63638 22.2948 6.45767 23.3694 6.50501C24.3913 6.47456 25.408 6.66242 26.351 7.05595C27.2939 7.44949 28.1414 8.03958 28.8365 8.78656C29.5543 9.54148 30.1157 10.43 30.4885 11.4012C30.8614 12.3724 31.0385 13.4073 31.0097 14.4468C31.0068 14.9807 30.9579 15.5134 30.8635 16.039H19.4713ZM19.4129 13.0293H27.1116C26.9592 12.1208 26.4642 11.3046 25.7278 10.7477C25.0452 10.2465 24.2173 9.98062 23.3694 9.99044C22.4334 9.95309 21.5134 10.2414 20.7674 10.806C20.0474 11.354 19.5521 12.1442 19.3739 13.0293H19.4129Z" fill="white"/>
<path d="M35.7951 11.1942C35.7951 11.602 36.0485 11.9321 36.5747 12.1651C37.2078 12.4311 37.8591 12.6517 38.5238 12.8253C39.3042 13.007 40.0697 13.2472 40.8139 13.5438C41.59 13.8286 42.2669 14.331 42.7629 14.9904C43.3175 15.7244 43.603 16.6255 43.5718 17.5437C43.6168 18.2382 43.4861 18.9329 43.1915 19.5639C42.8969 20.195 42.448 20.7422 41.8858 21.1554C40.6125 22.0157 39.0964 22.4478 37.559 22.3884C34.46 22.3884 32.3453 21.1975 31.2148 18.8156L34.5964 16.8738C34.7892 17.4807 35.1839 18.0038 35.7155 18.3569C36.2471 18.71 36.8836 18.8718 37.52 18.8156C38.9136 18.8156 39.6055 18.3787 39.6055 17.5146C39.6055 17.1133 39.3326 16.7897 38.7869 16.5437C38.163 16.247 37.5098 16.016 36.8378 15.8544C36.0626 15.6696 35.2981 15.4428 34.5477 15.1748C33.7901 14.8754 33.1199 14.3913 32.5987 13.7671C32.0546 13.0578 31.7724 12.1835 31.7996 11.2913C31.771 10.6206 31.9049 9.95294 32.1898 9.34462C32.4748 8.7363 32.9025 8.20521 33.4368 7.79618C34.615 6.9093 36.0637 6.45335 37.5395 6.50492C38.7169 6.48863 39.8786 6.77628 40.9113 7.33987C41.9162 7.87966 42.7447 8.69501 43.2989 9.68938L39.9368 11.4952C39.7422 11.0222 39.4054 10.6209 38.9727 10.3462C38.54 10.0715 38.0325 9.93707 37.52 9.96123C37.0743 9.94493 36.6337 10.0597 36.2531 10.2913C36.1059 10.3905 35.9865 10.5255 35.9063 10.6835C35.8262 10.8415 35.7879 11.0173 35.7951 11.1942Z" fill="white"/>
<path d="M59.1153 21.9708H54.5545L49.0485 15.1747V21.9708H45.1504V0.902832H49.0485V13.5242L54.2817 6.92225H58.9301L52.8589 14.3591L59.1153 21.9708Z" fill="white"/>
<path d="M62.087 5.11626C61.7723 5.12017 61.4601 5.06131 61.1687 4.94316C60.8772 4.825 60.6125 4.64994 60.39 4.42828C60.1675 4.20662 59.9917 3.94284 59.8732 3.65249C59.7546 3.36213 59.6955 3.05107 59.6994 2.73762C59.699 2.42532 59.7607 2.11604 59.8812 1.82772C60.0016 1.5394 60.1783 1.27777 60.4011 1.058C60.6178 0.829073 60.8791 0.646465 61.1689 0.521286C61.4587 0.396107 61.7711 0.330974 62.087 0.329848C62.4038 0.325036 62.718 0.387482 63.0087 0.513032C63.2993 0.638582 63.5599 0.824359 63.7729 1.058C64.0045 1.27252 64.1891 1.5325 64.3148 1.82158C64.4406 2.11065 64.505 2.42255 64.5038 2.73762C64.504 3.05396 64.4392 3.36701 64.3136 3.65752C64.1879 3.94802 64.0039 4.20986 63.7729 4.42694C63.5538 4.6502 63.2913 4.82652 63.0014 4.94505C62.7115 5.06359 62.4003 5.12185 62.087 5.11626ZM60.1477 21.9706V6.92208H64.0458V21.9706H60.1477Z" fill="white"/>
<path d="M66.707 21.9709V0H70.6051V21.9709H66.707Z" fill="white"/>
<path d="M83.1164 6.92236H87.2776L81.7813 21.9709C81.2206 23.81 80.1294 25.4442 78.6433 26.6699C77.2358 27.6889 75.5023 28.1586 73.7707 27.9903V24.3787C74.6469 24.4428 75.5191 24.2102 76.246 23.7185C76.9522 23.138 77.4681 22.3603 77.7273 21.4855L71.5293 6.92236H75.7977L79.6958 17.0389L83.1164 6.92236Z" fill="white"/>
<path d="M99.1179 6.92212H103.016V21.9707H99.1179V20.194C98.5352 20.9146 97.7906 21.4887 96.9442 21.8698C96.0978 22.2509 95.1733 22.4285 94.2453 22.3881C93.2666 22.3966 92.2973 22.1976 91.4018 21.8042C90.5062 21.4108 89.705 20.8321 89.0511 20.1066C87.6239 18.57 86.8548 16.5393 86.9072 14.4464C86.851 12.3616 87.6212 10.3386 89.0511 8.81532C89.699 8.08049 90.4985 7.49364 91.3949 7.09485C92.2914 6.69607 93.2636 6.49475 94.2453 6.50464C95.1733 6.46428 96.0978 6.64183 96.9442 7.02298C97.7906 7.40412 98.5352 7.97818 99.1179 8.69882V6.92212ZM91.926 17.5143C92.7379 18.2692 93.8072 18.689 94.9177 18.689C96.0283 18.689 97.0975 18.2692 97.9095 17.5143C98.3112 17.1128 98.6258 16.6332 98.8337 16.1055C99.0416 15.5777 99.1383 15.013 99.1179 14.4464C99.1396 13.884 99.0433 13.3233 98.8352 12.8001C98.6272 12.2768 98.3119 11.8026 97.9095 11.4076C97.1065 10.6352 96.0339 10.2035 94.9177 10.2035C93.8016 10.2035 92.729 10.6352 91.926 11.4076C91.5349 11.809 91.2296 12.2852 91.0286 12.8076C90.8276 13.3299 90.735 13.8874 90.7565 14.4464C90.7361 15.0096 90.8291 15.5713 91.0299 16.0982C91.2307 16.6251 91.5354 17.1066 91.926 17.5143Z" fill="white"/>
<path d="M109.721 21.6116C109.486 21.8527 109.204 22.0434 108.893 22.1719C108.581 22.3005 108.246 22.3642 107.909 22.3592C107.229 22.3592 106.577 22.0902 106.096 21.6113C105.616 21.1325 105.346 20.483 105.346 19.8058C105.348 19.1285 105.619 18.4795 106.099 17.9996C106.578 17.5198 107.229 17.2478 107.909 17.2427C108.589 17.2478 109.241 17.5194 109.722 17.999C110.204 18.4786 110.476 19.1276 110.481 19.8058C110.485 20.1425 110.42 20.4765 110.289 20.7871C110.158 21.0977 109.965 21.3783 109.721 21.6116Z" fill="white"/>
<path d="M118.804 22.3883C117.75 22.4122 116.703 22.2231 115.725 21.8325C114.747 21.4418 113.859 20.8577 113.114 20.1154C112.368 19.3732 111.782 18.4881 111.39 17.5138C110.998 16.5394 110.808 15.496 110.832 14.4466C110.841 13.0526 111.216 11.6853 111.92 10.4804C112.623 9.27544 113.631 8.27485 114.843 7.57797C116.054 6.88109 117.428 6.51217 118.827 6.50785C120.227 6.50353 121.603 6.86397 122.819 7.55336C123.989 8.21619 124.943 9.20029 125.567 10.3883L122.215 12.3301C121.911 11.7109 121.425 11.1993 120.821 10.864C120.201 10.5009 119.494 10.3129 118.774 10.3204C118.232 10.3026 117.692 10.3979 117.188 10.6002C116.685 10.8025 116.229 11.1073 115.851 11.4951C115.474 11.8796 115.178 12.3354 114.98 12.8356C114.783 13.3358 114.688 13.8704 114.701 14.4077C114.691 14.9447 114.788 15.4783 114.985 15.978C115.182 16.4778 115.477 16.9339 115.851 17.3204C116.234 17.6996 116.691 17.9968 117.194 18.1938C117.697 18.3908 118.235 18.4834 118.774 18.466C119.503 18.4779 120.221 18.3006 120.86 17.9514C121.462 17.6121 121.945 17.097 122.244 16.4757L125.625 18.4174C124.97 19.6223 124 20.6286 122.819 21.3301C121.601 22.038 120.213 22.4037 118.804 22.3883Z" fill="#C6C9E7"/>
<path d="M139.415 20.1068C138.297 21.2275 136.87 21.9911 135.315 22.3004C133.76 22.6096 132.148 22.4505 130.685 21.8432C129.221 21.236 127.972 20.2081 127.097 18.8907C126.222 17.5734 125.76 16.0262 125.772 14.4466C125.78 12.8757 126.254 11.3422 127.134 10.0383C128.013 8.73447 129.259 7.71823 130.716 7.11695C132.173 6.51568 133.775 6.35613 135.323 6.65829C136.87 6.96046 138.294 7.71089 139.415 8.81556C140.173 9.54278 140.771 10.4187 141.172 11.3879C141.573 12.3571 141.768 13.3986 141.744 14.4466C141.766 15.4987 141.57 16.5441 141.17 17.5177C140.769 18.4914 140.172 19.3727 139.415 20.1068ZM130.81 17.4272C131.597 18.1773 132.644 18.596 133.734 18.596C134.823 18.596 135.87 18.1773 136.657 17.4272C137.048 17.0371 137.354 16.5714 137.557 16.0587C137.76 15.546 137.855 14.9974 137.836 14.4466C137.855 13.8959 137.76 13.3472 137.557 12.8346C137.354 12.3219 137.048 11.8561 136.657 11.466C135.87 10.7159 134.823 10.2973 133.734 10.2973C132.644 10.2973 131.597 10.7159 130.81 11.466C130.427 11.8605 130.128 12.3278 129.931 12.8398C129.733 13.3519 129.641 13.8984 129.66 14.4466C129.641 14.9949 129.733 15.5413 129.931 16.0534C130.128 16.5655 130.427 17.0327 130.81 17.4272Z" fill="#C6C9E7"/>
<path d="M160.289 6.50479C161.059 6.46869 161.828 6.60026 162.541 6.89034C163.255 7.18042 163.896 7.62203 164.421 8.1844C165.517 9.42741 166.083 11.0468 166 12.699V21.9708H162.102V12.9708C162.146 12.2115 161.911 11.4622 161.439 10.864C161.201 10.6086 160.908 10.4091 160.583 10.2798C160.258 10.1506 159.908 10.0948 159.558 10.1164C159.168 10.0956 158.779 10.1635 158.419 10.3149C158.06 10.4663 157.739 10.6972 157.483 10.9902C156.947 11.7189 156.688 12.6134 156.752 13.5145V21.9708H152.854V12.9708C152.898 12.2115 152.662 11.4622 152.191 10.864C151.954 10.6088 151.664 10.4094 151.34 10.2801C151.016 10.1507 150.668 10.0949 150.32 10.1164C149.929 10.1011 149.54 10.1714 149.18 10.3224C148.819 10.4734 148.497 10.7014 148.234 10.9902C147.68 11.711 147.41 12.6088 147.474 13.5145V21.9708H143.576V6.92227H147.474V8.5145C147.94 7.84588 148.572 7.30915 149.308 6.95686C150.044 6.60457 150.86 6.4488 151.674 6.50479C152.493 6.45636 153.309 6.63261 154.035 7.01435C154.76 7.3961 155.366 7.96871 155.787 8.66984C156.288 7.95473 156.965 7.38001 157.754 7.00087C158.542 6.62173 159.415 6.4509 160.289 6.50479Z" fill="#C6C9E7"/>
</g>
<defs>
<clipPath id="clip0_3157_4522">
<rect width="166" height="28" fill="white"/>
</clipPath>
</defs>
</svg>

<svg width="166" height="28" fill="none" xmlns="http://www.w3.org/2000/svg"><g clip-path="url(#clip0_3157_4522)"><path d="M16.547 21.97h-4.872L4.16 12.098v9.874h-4.18V.903h4.18v9.3l7.25-9.3h4.805L8.42 11.136l8.127 10.835z" fill="#fff"/><path d="M19.471 16.039c.527 1.893 1.95 2.835 4.259 2.835a3.998 3.998 0 003.382-1.505l3.08 1.806a7.497 7.497 0 01-2.874 2.463 7.527 7.527 0 01-3.715.75 8.146 8.146 0 01-6.013-2.252 7.708 7.708 0 01-2.27-5.69 7.74 7.74 0 012.241-5.66 7.662 7.662 0 015.808-2.281 7.187 7.187 0 015.468 2.282 7.907 7.907 0 012.173 5.66 9.292 9.292 0 01-.147 1.592H19.471zm-.058-3.01h7.699a3.61 3.61 0 00-1.384-2.281 3.909 3.909 0 00-2.359-.758 4.045 4.045 0 00-2.602.816 3.716 3.716 0 00-1.393 2.223h.039zM35.795 11.194c0 .408.253.738.78.971.633.266 1.284.487 1.949.66.78.182 1.546.422 2.29.719a4.286 4.286 0 011.949 1.446 4.01 4.01 0 01.809 2.554 4.142 4.142 0 01-1.686 3.611 7.23 7.23 0 01-4.327 1.233c-3.099 0-5.214-1.19-6.344-3.572l3.381-1.942a2.814 2.814 0 002.924 1.942c1.394 0 2.085-.437 2.085-1.301 0-.402-.272-.725-.818-.971a9.962 9.962 0 00-1.95-.69 21.926 21.926 0 01-2.29-.68 4.872 4.872 0 01-1.948-1.407 3.873 3.873 0 01-.8-2.476 4.17 4.17 0 011.638-3.495 6.448 6.448 0 014.102-1.291 6.842 6.842 0 013.372.835A5.963 5.963 0 0143.3 9.69l-3.362 1.805a2.492 2.492 0 00-2.417-1.534 2.277 2.277 0 00-1.267.33 1.042 1.042 0 00-.458.903zM59.115 21.97h-4.56l-5.507-6.795v6.796H45.15V.903h3.898v12.621l5.234-6.602h4.648L52.86 14.36l6.256 7.612zM62.087 5.116a2.366 2.366 0 01-1.697-.688 2.347 2.347 0 01-.69-1.69 2.352 2.352 0 01.701-1.68A2.329 2.329 0 0162.087.33a2.239 2.239 0 011.686.728 2.28 2.28 0 01.73 1.68 2.314 2.314 0 01-.73 1.689 2.301 2.301 0 01-1.686.69zm-1.94 16.855V6.922h3.899v15.049h-3.898zM66.707 21.97V0h3.898v21.97h-3.898zM83.116 6.922h4.162L81.78 21.971a9.794 9.794 0 01-3.138 4.699 7.133 7.133 0 01-4.872 1.32V24.38a3.91 3.91 0 002.475-.66 4.573 4.573 0 001.481-2.234L71.53 6.922h4.269l3.898 10.117 3.42-10.117zM99.118 6.922h3.898v15.049h-3.898v-1.777a5.944 5.944 0 01-4.873 2.194 6.92 6.92 0 01-5.194-2.281 8.022 8.022 0 01-2.144-5.66 7.916 7.916 0 012.144-5.632 6.82 6.82 0 015.194-2.31 5.944 5.944 0 014.873 2.194V6.922zm-7.192 10.592a4.394 4.394 0 005.983 0 4.135 4.135 0 001.209-3.068 4.033 4.033 0 00-1.209-3.038 4.316 4.316 0 00-5.983 0 4.133 4.133 0 00-1.17 3.038 4.21 4.21 0 001.17 3.068zM109.721 21.612a2.478 2.478 0 01-1.812.747 2.57 2.57 0 01-1.813-.748 2.55 2.55 0 01-.75-1.805 2.565 2.565 0 01.753-1.806 2.586 2.586 0 011.81-.757c.68.005 1.332.276 1.813.756.482.48.754 1.129.759 1.807a2.45 2.45 0 01-.76 1.806z" fill="#fff"/><path d="M118.804 22.388a7.822 7.822 0 01-5.69-2.273 7.75 7.75 0 01-2.282-5.668 7.963 7.963 0 011.088-3.967 8 8 0 012.923-2.902 8.04 8.04 0 017.976-.025 7 7 0 012.748 2.835l-3.352 1.942a3.38 3.38 0 00-1.394-1.466 3.967 3.967 0 00-2.047-.544 3.913 3.913 0 00-2.923 1.175 4.025 4.025 0 00-1.15 2.913 4.075 4.075 0 001.15 2.912 3.962 3.962 0 002.923 1.146 4.205 4.205 0 002.086-.515 3.374 3.374 0 001.384-1.475l3.381 1.941a7.625 7.625 0 01-2.806 2.913 7.822 7.822 0 01-4.015 1.058zM139.415 20.107a8.006 8.006 0 01-8.73 1.736 7.973 7.973 0 01-3.588-2.952 7.923 7.923 0 01-1.325-4.444 7.952 7.952 0 011.362-4.409 7.999 7.999 0 013.582-2.921 8.04 8.04 0 018.699 1.699 7.581 7.581 0 012.329 5.63 7.66 7.66 0 01-2.329 5.66zm-8.605-2.68a4.237 4.237 0 005.847 0 4.026 4.026 0 001.179-2.98 4.003 4.003 0 00-1.179-2.981 4.237 4.237 0 00-5.847 0 4.071 4.071 0 00-1.15 2.98 4.07 4.07 0 001.15 2.98zM160.289 6.505a5.317 5.317 0 014.132 1.68A6.344 6.344 0 01166 12.698v9.272h-3.898v-9a3.11 3.11 0 00-.663-2.107 2.366 2.366 0 00-1.881-.748 2.582 2.582 0 00-2.075.874 3.805 3.805 0 00-.731 2.524v8.457h-3.898v-9a3.115 3.115 0 00-.663-2.107 2.349 2.349 0 00-1.871-.748 2.676 2.676 0 00-2.086.874 3.712 3.712 0 00-.76 2.524v8.457h-3.898V6.922h3.898v1.593a4.718 4.718 0 014.2-2.01 4.501 4.501 0 012.361.51 4.475 4.475 0 011.752 1.655 5.12 5.12 0 014.502-2.165z" fill="#C6C9E7"/></g><defs><clipPath id="clip0_3157_4522"><path fill="#fff" d="M0 0h166v28H0z"/></clipPath></defs></svg>
